X:1
T:Jasper, 76.76 D
T:Jasper, 76.76 D
T:George Frederick Root, 1881
T:Public Domain Courtesy of the Cyber Hymnal™
C:George Frederick Root, 1881
Z:Public Domain
Z:Courtesy of the Cyber Hymnal™
%%score 1 ( 2 3 )
L:1/8
Q:1/4=105
M:6/8
K:A
V:1 treble 
V:2 bass 
V:3 bass 
V:1
 [CE] | [Ec]2 [DB] [CA]2 [DB] | [CA] [B,G]4 [CA] | [DB]2 [DG] [DF]2 [DG] | ([DF]3 [CE]2) [CE] | %5
 [C^E]2 [EG] [Ec]2 [EB] | [FB] [FA]4 [EG] | [^DF]2 [EG] [FA]2 [DB] | ([D-B]3 [DE]2) [DE] | %9
 [Cc]2 [CB] [CA]2 [DB] | [CA] [B,G]4 [CA] | [DB]2 [DG] [DF]2 [DG] | ([DF]3 [CE]2) [Ec] | %13
 [^Ec]2 [Ed] [Ec]2 [EB] | [FB] [FA]4 [DF] | [DE]2 [DF] [DG]2 [DB] | [CA]3- [CA]2 |] %17
V:2
 [A,,A,] | [A,,A,]2 [A,,A,] [A,,A,]2 [A,,A,] | E, E,4 [E,A,] | [E,G,]2 [E,G,] [E,B,]2 [E,B,] | %4
 [A,,A,]3- [A,,A,]2 [A,,A,] | [C,G,]2 [C,G,] [C,G,]2 [C,C] | [F,C] [F,C]4 [F,C] | %7
 [B,,B,]2 [B,,B,] [B,,B,]2 [B,,B,] | [E,G,]3- [E,G,]2 [E,G,] | [A,,A,]2 [A,,A,] [A,,A,]2 [A,,A,] | %10
 E, E,4 [E,A,] | [E,G,]2 [E,G,] [E,B,]2 [E,B,] | [A,,A,]3- [A,,A,]2 [A,,A,] | %13
 [C,G,]2 [C,G,] [C,G,]2 [C,G,] | [D,F,] [D,A,]4 [D,A,] | [E,G,]2 [E,A,] [E,B,]2 [E,G,] | %16
 [A,,A,]3- [A,,A,]2 |] %17
V:3
 x | x6 | E, E,4 x | x6 | x6 | x6 | x6 | x6 | x6 | x6 | E, E,4 x | x6 | x6 | x6 | x6 | x6 | x5 |] %17

